icons/tag-list.svg

<svg xmlns="http://www.w3.org/2000/svg" width="24" height="24" viewBox="0 0 24 24">
  <path d="M13,2 C13.2652165,2 13.5195704,2.10535684 13.7071068,2.29289322 L13.7071068,2.29289322 L21.2928932,9.87867966 C22.4644661,11.0502525 22.4644661,12.9497475 21.2928932,14.1213203 L21.2928932,14.1213203 L14.1213203,21.2928932 C12.9497475,22.4644661 11.0502525,22.4644661 9.87867966,21.2928932 L9.87867966,21.2928932 L2.29289322,13.7071068 C2.10535684,13.5195704 2,13.2652165 2,13 L2,13 L2,5 C2,3.34314575 3.34314575,2 5,2 L5,2 Z M16,13 L8,13 L7.88337887,13.0067277 C7.38604019,13.0644928 7,13.4871642 7,14 C7,14.5522847 7.44771525,15 8,15 L8,15 L16,15 L16.1166211,14.9932723 C16.6139598,14.9355072 17,14.5128358 17,14 C17,13.4477153 16.5522847,13 16,13 L16,13 Z M16,9 L8,9 L7.88337887,9.00672773 C7.38604019,9.06449284 7,9.48716416 7,10 C7,10.5522847 7.44771525,11 8,11 L8,11 L16,11 L16.1166211,10.9932723 C16.6139598,10.9355072 17,10.5128358 17,10 C17,9.44771525 16.5522847,9 16,9 L16,9 Z"/>
</svg>

<svg xmlns="http://www.w3.org/2000/svg" viewBox="0 0 24 24">
  <path d="M13 2a1 1 0 0 1 .7.3l7.6 7.58a3 3 0 0 1 0 4.24l-7.18 7.17a3 3 0 0 1-4.24 0l-7.59-7.58A1 1 0 0 1 2 13V5a3 3 0 0 1 3-3zm3 11H7.88A1 1 0 0 0 8 15h8.12a1 1 0 0 0-.12-2zm0-4H7.88A1 1 0 0 0 8 11h8.12A1 1 0 0 0 16 9z"/>
</svg>
